svg/hand_heart.svg

<svg xmlns="http://www.w3.org/2000/svg" viewBox="0 0 24 24"><path d="M20 17q.86 0 1.45.6t.58 1.4L14 22l-7-2v-9h1.95l7.27 2.69q.78.31.78 1.12 0 .47-.34.82t-.86.37H13l-1.75-.67-.33.94L13 17zM16 3.23Q17.06 2 18.7 2q1.36 0 2.3 1t1 2.3q0 1.03-1 2.46t-1.97 2.39T16 13q-2.08-1.89-3.06-2.85t-1.97-2.39T10 5.3q0-1.36.97-2.3t2.34-1q1.6 0 2.69 1.23M.984 11H5v11H.984z"/></svg>

<?xml version="1.0" encoding="UTF-8"?><!DOCTYPE svg PUBLIC "-//W3C//DTD SVG 1.1//EN" "http://www.w3.org/Graphics/SVG/1.1/DTD/svg11.dtd"><svg xmlns="http://www.w3.org/2000/svg" xmlns:xlink="http://www.w3.org/1999/xlink" version="1.1" id="mdi-hand-heart" width="24" height="24" viewBox="0 0 24 24"><path d="M20 17Q20.86 17 21.45 17.6T22.03 19L14 22L7 20V11H8.95L16.22 13.69Q17 14 17 14.81 17 15.28 16.66 15.63T15.8 16H13L11.25 15.33L10.92 16.27L13 17H20M16 3.23Q17.06 2 18.7 2 20.06 2 21 3T22 5.3Q22 6.33 21 7.76T19.03 10.15 16 13Q13.92 11.11 12.94 10.15T10.97 7.76 10 5.3Q10 3.94 10.97 3T13.31 2Q14.91 2 16 3.23M.984 11H5V22H.984V11Z" /></svg>
